X: 42556
T: When She Cam'Ben She Bobbit
R: waltz
M: 3/4
K: Eminor
E3F EF|G4 AG|F2 D2 D2|D3E FG|
E3F E2|e6|d2 B2 Bc|B3c Bc||
d2 G2 B2|d2 c2 B2|A2 B G2 A|F3F GA|
B3B cd|B2 A2 B2|G3A GF|E4 FG||

